X: 10931
M: 2/4
L: 1/16
K: F
c2 |\
c4 A2F2 | f6 e2 | d2c2B2A2 | cBAB GAB=B |\
d2c2A2F2 | f2fe f2ed | dcAB cBGA | F6 |]
f2e2d2c2 | A2c2d2g2 | f2cA c2BG | (G4 "^D.C."F2) |]
K: Bb


